icons/globalplayer.svg

<svg width="32" height="32" viewBox="0 0 32 32" fill="none" xmlns="http://www.w3.org/2000/svg">
<path d="M3.36627 28.6337C0.910867 26.1783 0 22.1783 0 16C0 9.82167 0.910867 5.82167 3.36627 3.36627C5.82167 0.910867 9.82167 0 16 0C22.1783 0 26.1783 0.910867 28.6337 3.36627C31.0891 5.82167 32 9.82167 32 16C32 22.1783 31.0891 26.1783 28.6337 28.6337C26.1783 31.0891 22.1783 32 16 32C9.82167 32 5.82167 31.0891 3.36627 28.6337Z" fill="url(#paint0_linear_51_430)"/>
<path fill-rule="evenodd" clip-rule="evenodd" d="M26.2499 14.7544C26.4753 14.8746 26.6638 15.0538 26.7952 15.2728C26.9266 15.4918 26.996 15.7425 26.996 15.9979C26.996 16.2533 26.9266 16.5039 26.7952 16.7229C26.6638 16.942 26.4753 17.1211 26.2499 17.2413L7.13273 27.612C6.91468 27.7321 6.66923 27.7937 6.4203 27.7908C6.17138 27.7878 5.92745 27.7205 5.71229 27.5953C5.49712 27.47 5.31806 27.2912 5.19253 27.0763C5.067 26.8613 4.9993 26.6174 4.996 26.3685V5.63061C4.9993 5.38169 5.067 5.13786 5.19253 4.92288C5.31806 4.7079 5.49712 4.5291 5.71229 4.40388C5.92745 4.27867 6.17138 4.21131 6.4203 4.20838C6.66923 4.20545 6.91468 4.26704 7.13273 4.38715L26.2499 14.7544Z" fill="white"/>
<path fill-rule="evenodd" clip-rule="evenodd" d="M16.3948 22.5876L13.1298 24.3588C12.7311 24.3516 12.3341 24.2809 11.9539 24.1475C11.2888 23.9142 10.7012 23.4984 10.2566 22.9466C9.81196 22.3949 9.52799 21.7289 9.43644 21.0233C9.34488 20.3177 9.44935 19.6002 9.73815 18.9512L11.6972 19.8455C11.5537 20.172 11.5185 20.5367 11.5967 20.8851C11.6749 21.2335 11.8624 21.5471 12.1312 21.779C12.4 22.0109 12.7358 22.1488 13.0884 22.1721C13.4411 22.1954 13.7917 22.1029 14.0881 21.9083C14.3845 21.7137 14.6108 21.4275 14.7332 21.0923C14.8556 20.7572 14.8676 20.391 14.7674 20.0484C14.6672 19.7058 14.4601 19.4051 14.1771 19.1911C13.8941 18.9771 13.5503 18.8613 13.1969 18.861H12.6288C11.4666 18.861 10.3519 18.3942 9.53009 17.5633C8.70825 16.7324 8.24655 15.6055 8.24655 14.4305C8.24655 13.2554 8.70825 12.1285 9.53009 11.2977C10.3519 10.4668 11.4666 10 12.6288 10H16.9738C16.9738 10 17.1491 11.3784 16.2434 11.9429C16.7381 12.6781 17.0007 13.5478 16.9965 14.437H16.9949C16.9953 15.0296 16.8782 15.6162 16.6504 16.1621C16.4226 16.7081 16.0889 17.2023 15.6688 17.6155C16.2028 18.0792 16.5986 18.684 16.812 19.3622C17.0254 20.0404 17.0478 20.7652 16.8769 21.4556C16.7772 21.8586 16.6138 22.2406 16.3948 22.5876ZM11.9714 16.5824C11.6275 16.4753 11.3145 16.2853 11.0593 16.0287V16.0304C10.7525 15.7194 10.5425 15.3244 10.4553 14.8941C10.3681 14.4639 10.4075 14.0172 10.5685 13.6093C10.7296 13.2014 11.0054 12.8501 11.3617 12.5989C11.718 12.3476 12.1394 12.2074 12.5736 12.1956H12.7441C13.1034 12.2151 13.4527 12.3226 13.7618 12.5088C14.0709 12.6951 14.3306 12.9545 14.5185 13.2647C14.7065 13.575 14.817 13.9267 14.8406 14.2898C14.8642 14.6528 14.8002 15.0162 14.6541 15.3486C14.508 15.6811 14.2841 15.9727 14.0018 16.1982C13.7195 16.4238 13.3872 16.5767 13.0335 16.6436C12.6798 16.7105 12.3153 16.6895 11.9714 16.5824Z" fill="#3183C5"/>
<defs>
<linearGradient id="paint0_linear_51_430" x1="0" y1="0" x2="32" y2="32" gradientUnits="userSpaceOnUse">
<stop stop-color="#19E4FD"/>
<stop offset="1" stop-color="#1D54EE"/>
</linearGradient>
</defs>
</svg>

<svg xmlns="http://www.w3.org/2000/svg" width="32" height="32" fill="none" viewBox="0 0 32 32">
  <path fill="url(#a)" d="M3.366 28.634C.911 26.178 0 22.178 0 16S.91 5.822 3.366 3.366C5.822.911 9.822 0 16 0s10.178.91 12.634 3.366C31.089 5.822 32 9.822 32 16s-.91 10.178-3.366 12.634C26.178 31.089 22.178 32 16 32s-10.178-.91-12.634-3.366Z"/>
  <path fill="#fff" fill-rule="evenodd" d="M26.25 14.754a1.409 1.409 0 0 1 0 2.487L7.133 27.612a1.442 1.442 0 0 1-2.137-1.243V5.63a1.441 1.441 0 0 1 2.137-1.244L26.25 14.754Z" clip-rule="evenodd"/>
  <path fill="#3183C5" fill-rule="evenodd" d="m16.395 22.588-3.265 1.77a3.757 3.757 0 0 1-1.176-.21 3.793 3.793 0 0 1-1.697-1.201 3.873 3.873 0 0 1-.518-3.995l1.958.894a1.675 1.675 0 0 0 .434 1.933 1.63 1.63 0 0 0 2.602-.687 1.674 1.674 0 0 0-.556-1.9 1.627 1.627 0 0 0-.98-.331h-.568a4.358 4.358 0 0 1-3.099-1.298 4.455 4.455 0 0 1-1.283-3.132c0-1.176.461-2.302 1.283-3.133A4.358 4.358 0 0 1 12.63 10h4.345s.175 1.378-.73 1.943c.494.735.757 1.605.753 2.494h-.002c0 .593-.117 1.18-.345 1.725a4.431 4.431 0 0 1-.981 1.454 3.83 3.83 0 0 1 1.143 1.746 3.875 3.875 0 0 1-.417 3.226Zm-4.424-6.006a2.215 2.215 0 0 1-.912-.553v.001a2.27 2.27 0 0 1-.49-2.421 2.23 2.23 0 0 1 .793-1.01 2.207 2.207 0 0 1 1.212-.403h.17a2.21 2.21 0 0 1 1.775 1.069 2.262 2.262 0 0 1-.517 2.933 2.209 2.209 0 0 1-2.03.384Z" clip-rule="evenodd"/>
  <defs>
    <linearGradient id="a" x1="0" x2="32" y1="0" y2="32" gradientUnits="userSpaceOnUse">
      <stop stop-color="#19E4FD"/>
      <stop offset="1" stop-color="#1D54EE"/>
    </linearGradient>
  </defs>
</svg>
